X:162
T:Polca D\'alaigh
T:Dalaigh's Polka
T:Muiris \'O D\'alaigh's
R:polka
H:Cf #147 "Tune the Fiddle"
D:Brendan Begley & Caoimh\'in \'O Raghallaigh: A Moment of Madness
Z:id:hn-polka-162
M:2/4
L:1/8
K:Ador
eA BA | eA AB/d/ | eA BA | G2 g>f |
eA BA | eA AB/d/ | ed dB | A2 A2 :|
|: ed ef | ga g2 | ed e/f/g | a2 g2 |
ed ef | ga ge | dB GB | A2 A2 :|

